client-gui/verifai-ui/src/new_ask.svg

<?xml version="1.0" encoding="UTF-8" standalone="no"?>
<!-- Created with Inkscape (http://www.inkscape.org/) -->

<svg
   width="210mm"
   height="297mm"
   viewBox="0 0 210 297"
   version="1.1"
   id="svg1"
   xmlns="http://www.w3.org/2000/svg"
   xmlns:svg="http://www.w3.org/2000/svg">
  <defs
     id="defs1" />
  <g
     id="layer1">
    <path
       fill="#27292b"
       d="m 136.81292,136.86177 c -0.73725,14.63752 -7.01973,28.89884 -18.77577,39.50698 C 106.31556,186.97688 91.50027,191.78624 76.853103,191.0545 62.207312,190.30209 47.947375,184.02926 37.326834,172.30215 26.733853,160.55714 21.94517,145.74598 22.661749,131.0809 23.408647,116.45302 29.686991,102.19309 41.418227,91.593218 53.154978,80.994724 67.974403,76.175725 82.616056,76.917109 c 14.655437,0.733117 28.901594,7.005947 39.511114,18.742698 10.60951,11.727103 15.39958,26.556173 14.68575,41.201963 z m 57.54549,104.06806 -51.89829,-57.42974 c 10.53648,-13.31598 16.34629,-29.28469 17.17173,-45.47112 1.05834,-20.4184 -5.75882,-41.338392 -20.53552,-57.699838 C 124.30447,63.967685 104.16582,55.102765 83.766719,54.080261 63.35246,53.030196 42.429708,59.83357 26.102712,74.624054 9.7164598,89.42556 0.86532196,109.53527 -0.15580388,129.93437 -1.2251615,150.34312 5.5878592,171.26311 20.370073,187.62456 c 14.794618,16.36007 34.929134,25.23464 55.337878,26.25714 16.182305,0.8282 32.674669,-3.36379 46.982839,-12.50707 l 51.879,57.42009 c 4.94578,5.47357 13.37661,5.88698 18.83364,0.95222 5.46944,-4.93337 5.88836,-13.36421 0.95498,-18.81711"
       fill-opacity="1"
       fill-rule="nonzero"
       id="path18"
       style="stroke-width:0.352778" />
  </g>
</svg>

<svg xmlns="http://www.w3.org/2000/svg" width="210mm" height="297mm" viewBox="0 0 210 297"><path fill="#27292b" d="M136.813 136.862c-.737 14.637-7.02 28.899-18.776 39.507-11.721 10.608-26.537 15.417-41.184 14.685-14.646-.752-28.906-7.025-39.526-18.752-10.593-11.745-15.382-26.556-14.665-41.221.747-14.628 7.025-28.888 18.756-39.488 11.737-10.598 26.556-15.417 41.198-14.676 14.655.733 28.902 7.006 39.511 18.743 10.61 11.727 15.4 26.556 14.686 41.202m57.545 104.068L142.46 183.5c10.537-13.316 16.346-29.285 17.172-45.471a79.84 79.84 0 0 0-20.536-57.7c-14.792-16.361-34.93-25.226-55.33-26.249-20.414-1.05-41.336 5.754-57.663 20.544C9.716 89.426.865 109.535-.156 129.934a79.75 79.75 0 0 0 20.526 57.69c14.795 16.36 34.93 25.235 55.338 26.258 16.182.828 32.675-3.364 46.983-12.507l51.879 57.42c4.946 5.473 13.376 5.887 18.833.952 5.47-4.933 5.889-13.364.955-18.817" style="stroke-width:.352778"/></svg>
